src/assets/logos/yemeksepeti.svg

<svg xmlns="http://www.w3.org/2000/svg" xmlns:xlink="http://www.w3.org/1999/xlink" width="144" zoomAndPan="magnify" viewBox="0 0 108 48" height="64" preserveAspectRatio="xMidYMid meet" version="1.0"><defs><clipPath id="4885cbbfd8"><path d="M 1.101562 0 L 106.898438 0 L 106.898438 47.019531 L 1.101562 47.019531 Z M 1.101562 0 " clip-rule="nonzero"/></clipPath></defs><g clip-path="url(#4885cbbfd8)"><path fill="#ffffff" d="M 1.101562 0 L 106.898438 0 L 106.898438 47.019531 L 1.101562 47.019531 Z M 1.101562 0 " fill-opacity="1" fill-rule="nonzero"/><path fill="#ffffff" d="M 1.101562 0 L 106.898438 0 L 106.898438 47.019531 L 1.101562 47.019531 Z M 1.101562 0 " fill-opacity="1" fill-rule="nonzero"/></g><path fill="#fa0050" d="M 75.738281 24.664062 C 75.738281 24.105469 75.550781 23.546875 74.929688 23.546875 C 74.683594 23.546875 74.496094 23.609375 74.3125 23.792969 C 73.816406 24.289062 73.503906 24.972656 73.382812 25.65625 L 73.007812 27.761719 C 73.132812 27.886719 73.320312 27.949219 73.441406 28.011719 C 73.566406 28.074219 73.691406 28.074219 73.816406 28.074219 C 74.929688 28.074219 75.738281 26.089844 75.738281 24.664062 Z M 78.714844 24.414062 C 78.714844 27.390625 76.855469 30.304688 73.9375 30.304688 C 73.628906 30.304688 73.320312 30.246094 73.007812 30.183594 C 72.824219 30.121094 72.699219 30.058594 72.574219 29.996094 L 72.511719 29.996094 C 72.511719 29.996094 72.078125 32.414062 72.078125 32.414062 C 71.890625 33.222656 71.707031 33.28125 71.085938 33.34375 C 70.589844 33.40625 70.03125 33.28125 69.535156 33.097656 C 69.226562 32.972656 69.039062 32.785156 69.164062 32.226562 C 69.164062 32.226562 71.148438 21.871094 71.148438 21.871094 C 71.210938 21.4375 71.394531 21.25 71.707031 21.191406 C 71.953125 21.191406 72.203125 21.191406 72.449219 21.191406 C 72.824219 21.25 73.132812 21.3125 73.441406 21.5 C 73.691406 21.683594 73.816406 21.996094 73.753906 22.242188 L 73.691406 22.429688 C 73.9375 22.058594 74.25 21.746094 74.683594 21.5625 C 75.117188 21.3125 75.613281 21.191406 76.109375 21.191406 C 77.96875 21.191406 78.714844 22.679688 78.714844 24.414062 Z M 61.347656 23.421875 C 61.660156 23.175781 61.847656 22.863281 61.96875 22.492188 C 62.09375 22.058594 62.09375 21.808594 61.410156 21.4375 C 60.667969 21.128906 59.863281 21.003906 58.992188 21.066406 C 56.699219 21.128906 55.148438 22.429688 55.273438 24.289062 C 55.335938 25.34375 56.265625 26.089844 57.257812 26.585938 C 58 26.957031 58.25 27.207031 58.3125 27.515625 C 58.3125 27.824219 58.0625 28.136719 57.503906 28.136719 C 56.886719 28.136719 56.265625 28.011719 55.707031 27.824219 C 55.273438 27.640625 55.148438 27.761719 54.960938 27.949219 C 54.714844 28.257812 54.527344 28.632812 54.527344 29.003906 C 54.464844 29.4375 54.589844 29.6875 55.085938 29.933594 C 55.832031 30.246094 56.636719 30.367188 57.382812 30.304688 C 59.800781 30.246094 61.410156 29.066406 61.289062 27.082031 C 61.226562 25.964844 60.171875 25.28125 59.117188 24.722656 C 58.496094 24.414062 58.1875 24.226562 58.1875 23.917969 C 58.1875 23.484375 58.558594 23.296875 59.117188 23.238281 C 59.613281 23.238281 60.046875 23.296875 60.542969 23.421875 L 60.667969 23.484375 C 61.164062 23.609375 61.164062 23.546875 61.347656 23.421875 Z M 92.480469 28.011719 C 92.417969 27.761719 92.109375 27.578125 91.863281 27.640625 C 91.675781 27.640625 91.304688 27.761719 91.179688 27.640625 C 91.054688 27.515625 90.929688 27.390625 90.929688 27.207031 C 90.992188 26.894531 90.992188 26.585938 91.054688 26.273438 L 91.613281 23.484375 L 92.855469 23.484375 C 93.164062 23.421875 93.351562 23.234375 93.414062 22.925781 C 93.535156 22.429688 93.535156 22.183594 93.597656 21.933594 C 93.597656 21.746094 93.535156 21.5625 93.414062 21.5 C 93.289062 21.375 93.101562 21.3125 92.914062 21.3125 L 91.984375 21.3125 C 91.984375 21.3125 92.296875 19.886719 92.296875 19.824219 C 92.359375 19.703125 92.359375 19.515625 92.234375 19.390625 C 92.171875 19.265625 92.046875 19.144531 91.863281 19.082031 C 91.429688 18.894531 90.929688 18.769531 90.433594 18.832031 C 89.878906 18.832031 89.628906 18.957031 89.441406 19.761719 L 89.132812 21.3125 L 88.636719 21.3125 C 88.390625 21.3125 88.140625 21.5 88.078125 21.746094 C 88.015625 21.996094 87.953125 22.304688 87.890625 22.679688 C 87.832031 22.925781 87.769531 23.359375 88.449219 23.421875 L 88.824219 23.421875 L 88.203125 26.648438 C 88.078125 27.144531 88.015625 27.640625 88.015625 28.136719 C 88.078125 29.3125 88.824219 30.121094 90.375 30.121094 C 90.871094 30.121094 91.429688 29.996094 91.863281 29.746094 C 92.480469 29.4375 92.542969 29.3125 92.605469 28.816406 C 92.605469 28.570312 92.605469 28.257812 92.480469 28.011719 Z M 96.886719 21.4375 C 96.453125 21.25 95.953125 21.128906 95.519531 21.128906 C 94.777344 21.128906 94.589844 21.3125 94.527344 21.871094 C 94.527344 21.871094 93.472656 29.128906 93.472656 29.128906 C 93.414062 29.3125 93.472656 29.5 93.535156 29.625 C 93.597656 29.746094 93.785156 29.871094 93.910156 29.933594 C 94.40625 30.121094 94.902344 30.246094 95.457031 30.183594 C 96.015625 30.121094 96.265625 29.996094 96.390625 29.25 L 97.382812 22.429688 C 97.441406 21.996094 97.257812 21.625 96.886719 21.4375 Z M 19.117188 19.082031 C 19.304688 18.769531 19.363281 18.398438 19.117188 18.089844 C 18.808594 17.59375 18.433594 17.160156 17.9375 16.910156 C 17.257812 16.539062 16.761719 16.601562 16.328125 17.34375 C 15.832031 18.214844 15.335938 19.082031 14.835938 19.949219 L 13.410156 22.367188 C 13.289062 22.121094 12.792969 19.761719 12.542969 18.585938 C 12.480469 18.273438 12.355469 18.027344 12.109375 17.777344 C 11.613281 17.28125 10.992188 16.972656 10.3125 16.972656 C 9.441406 16.972656 9.257812 17.222656 9.316406 17.964844 C 9.316406 18.214844 9.378906 18.460938 9.441406 18.707031 C 9.753906 20.199219 10.1875 21.683594 10.808594 23.113281 C 11.054688 23.671875 11.363281 24.226562 11.738281 24.722656 C 11.859375 24.847656 11.859375 25.097656 11.796875 25.222656 C 11.363281 26.214844 10.867188 27.207031 10.433594 28.199219 C 10.0625 29.128906 9.816406 30.121094 9.875 31.113281 C 9.875 31.484375 10.0625 31.855469 10.375 32.105469 C 10.808594 32.476562 11.425781 32.601562 11.984375 32.476562 C 12.542969 32.414062 12.976562 32.042969 13.101562 31.546875 C 13.785156 28.445312 15.023438 25.40625 16.761719 22.742188 C 17.566406 21.375 18.3125 20.257812 19.117188 19.082031 Z M 96.265625 17.71875 C 95.894531 17.71875 95.519531 17.902344 95.210938 18.214844 C 94.960938 18.523438 94.839844 18.894531 94.839844 19.328125 C 94.839844 19.703125 94.960938 20.011719 95.210938 20.257812 C 95.457031 20.507812 95.769531 20.632812 96.140625 20.570312 C 96.574219 20.570312 96.945312 20.382812 97.195312 20.074219 C 97.441406 19.761719 97.628906 19.328125 97.566406 18.957031 C 97.566406 18.585938 97.382812 18.273438 97.132812 18.027344 C 97.007812 17.839844 96.636719 17.71875 96.265625 17.71875 Z M 35.800781 21.128906 C 34.683594 21.128906 33.691406 21.683594 33.070312 22.617188 C 32.945312 21.683594 32.078125 21.066406 31.148438 21.128906 C 30.03125 21.128906 28.976562 21.683594 28.417969 22.617188 C 28.417969 22.617188 28.480469 22.304688 28.480469 22.242188 C 28.542969 21.933594 28.417969 21.625 28.171875 21.4375 C 27.800781 21.25 27.363281 21.128906 26.929688 21.191406 C 26.496094 21.191406 26.125 21.25 26 21.871094 L 24.636719 28.941406 C 24.574219 29.375 24.574219 29.5625 24.820312 29.746094 C 25.195312 29.996094 25.691406 30.183594 26.125 30.246094 C 26.683594 30.304688 27.242188 30.183594 27.304688 29.808594 L 27.984375 26.214844 C 28.296875 24.539062 28.976562 23.609375 29.597656 23.609375 C 29.96875 23.609375 30.15625 23.917969 30.15625 24.414062 C 30.15625 24.785156 30.09375 25.097656 30.03125 25.46875 L 29.351562 29.066406 C 29.226562 29.375 29.351562 29.6875 29.597656 29.871094 C 29.96875 30.121094 30.464844 30.304688 30.898438 30.304688 C 31.644531 30.367188 31.953125 30.183594 32.078125 29.5 L 32.699219 26.214844 C 33.007812 24.539062 33.628906 23.609375 34.25 23.609375 C 34.683594 23.609375 34.867188 23.917969 34.867188 24.351562 C 34.867188 24.722656 34.808594 25.097656 34.746094 25.46875 L 34.0625 28.878906 C 33.9375 29.191406 34.0625 29.5 34.25 29.6875 C 34.683594 29.933594 35.117188 30.121094 35.613281 30.121094 C 36.234375 30.183594 36.667969 29.996094 36.792969 29.3125 L 37.660156 24.972656 C 37.722656 24.414062 37.785156 23.917969 37.84375 23.359375 C 37.84375 21.996094 37.226562 21.128906 35.800781 21.128906 Z M 82.371094 24.722656 C 83.984375 24.785156 84.667969 24.539062 84.730469 23.917969 C 84.730469 23.546875 84.480469 23.296875 84.046875 23.296875 C 83.179688 23.296875 82.433594 23.917969 82.371094 24.722656 Z M 86.34375 29.128906 C 86.34375 29.375 86.34375 29.5625 85.910156 29.746094 C 84.976562 30.058594 83.925781 30.246094 82.929688 30.183594 C 80.449219 30.121094 79.273438 28.695312 79.335938 26.398438 C 79.394531 23.730469 81.257812 21.003906 84.417969 21.128906 C 86.21875 21.191406 87.394531 22.304688 87.335938 23.917969 C 87.273438 26.214844 85.289062 27.019531 82 26.832031 C 82 27.082031 82.125 27.265625 82.3125 27.453125 C 82.683594 27.761719 83.179688 27.949219 83.738281 27.949219 C 84.234375 27.949219 84.730469 27.886719 85.226562 27.761719 C 85.660156 27.640625 85.785156 27.761719 86.03125 28.074219 C 86.15625 28.382812 86.28125 28.753906 86.34375 29.128906 Z M 19.859375 24.722656 C 21.472656 24.785156 22.15625 24.539062 22.21875 23.917969 C 22.21875 23.546875 21.96875 23.296875 21.535156 23.296875 C 20.667969 23.296875 19.921875 23.917969 19.859375 24.722656 Z M 23.832031 29.128906 C 23.832031 29.375 23.832031 29.5625 23.394531 29.746094 C 22.464844 30.058594 21.410156 30.246094 20.417969 30.183594 C 17.9375 30.121094 16.761719 28.695312 16.820312 26.398438 C 16.882812 23.730469 18.746094 21.003906 21.90625 21.128906 C 23.707031 21.191406 24.882812 22.304688 24.820312 23.917969 C 24.761719 26.214844 22.777344 27.019531 19.488281 26.832031 C 19.488281 27.082031 19.613281 27.265625 19.800781 27.453125 C 20.171875 27.761719 20.730469 27.949219 21.226562 27.949219 C 21.722656 27.949219 22.21875 27.886719 22.714844 27.761719 C 23.148438 27.640625 23.273438 27.761719 23.519531 28.074219 C 23.644531 28.382812 23.769531 28.753906 23.832031 29.128906 Z M 41.320312 24.722656 C 42.929688 24.785156 43.613281 24.539062 43.675781 23.917969 C 43.675781 23.546875 43.425781 23.296875 42.992188 23.296875 C 42.125 23.296875 41.441406 23.917969 41.320312 24.722656 Z M 45.289062 29.128906 C 45.289062 29.375 45.289062 29.5625 44.855469 29.746094 C 43.921875 30.058594 42.867188 30.246094 41.878906 30.183594 C 39.394531 30.121094 38.21875 28.695312 38.21875 26.398438 C 38.28125 23.730469 40.140625 21.003906 43.304688 21.128906 C 45.101562 21.191406 46.28125 22.304688 46.21875 23.917969 C 46.15625 26.214844 44.171875 27.019531 40.882812 26.832031 C 40.882812 27.082031 41.007812 27.265625 41.195312 27.453125 C 41.566406 27.761719 42.0625 27.949219 42.621094 27.949219 C 43.117188 27.949219 43.613281 27.886719 44.109375 27.761719 C 44.542969 27.640625 44.667969 27.761719 44.914062 28.074219 C 45.164062 28.382812 45.289062 28.753906 45.289062 29.128906 Z M 65.007812 24.722656 C 66.621094 24.785156 67.304688 24.539062 67.367188 23.917969 C 67.367188 23.730469 67.304688 23.546875 67.179688 23.421875 C 67.054688 23.296875 66.867188 23.238281 66.683594 23.238281 C 65.816406 23.296875 65.132812 23.917969 65.007812 24.722656 Z M 68.976562 29.128906 C 68.976562 29.375 68.976562 29.5625 68.542969 29.746094 C 67.613281 30.058594 66.558594 30.246094 65.566406 30.183594 C 63.085938 30.121094 61.90625 28.695312 61.96875 26.398438 C 62.03125 23.730469 63.890625 21.003906 67.054688 21.128906 C 68.855469 21.191406 70.03125 22.304688 69.96875 23.917969 C 69.90625 26.214844 67.925781 27.019531 64.636719 26.832031 C 64.636719 27.082031 64.761719 27.265625 64.945312 27.453125 C 65.320312 27.761719 65.878906 27.949219 66.371094 27.949219 C 66.867188 27.949219 67.367188 27.886719 67.863281 27.761719 C 68.296875 27.640625 68.417969 27.761719 68.667969 28.074219 C 68.792969 28.382812 68.914062 28.753906 68.976562 29.128906 Z M 52.046875 25.28125 C 52.046875 25.28125 53.472656 28.570312 53.722656 29.066406 C 53.90625 29.5 53.722656 29.746094 53.226562 29.933594 C 52.667969 30.121094 52.046875 30.183594 51.425781 30.121094 C 51.179688 30.058594 50.929688 29.933594 50.867188 29.6875 L 49.878906 26.957031 L 49.320312 27.453125 L 48.945312 29.25 C 48.824219 29.996094 48.511719 30.058594 47.953125 30.121094 C 47.457031 30.183594 46.960938 30.058594 46.464844 29.871094 C 46.09375 29.6875 45.90625 29.5 46.09375 28.878906 L 48.140625 18.152344 C 48.265625 17.53125 48.386719 17.222656 49.320312 17.222656 C 49.816406 17.222656 50.3125 17.34375 50.746094 17.59375 C 50.992188 17.777344 51.117188 18.152344 51.054688 18.460938 C 50.808594 19.824219 49.9375 24.105469 49.9375 24.105469 C 49.9375 24.105469 51.984375 22.058594 52.359375 21.683594 C 52.730469 21.3125 53.039062 21.128906 53.289062 21.128906 C 53.785156 21.128906 54.28125 21.3125 54.714844 21.5625 C 55.210938 21.933594 55.273438 22.429688 54.902344 22.742188 Z M 52.046875 25.28125 " fill-opacity="1" fill-rule="evenodd"/></svg>

<svg xmlns="http://www.w3.org/2000/svg" width="144" height="64" viewBox="0 0 108 48"><defs><clipPath id="a"><path d="M1.102 0h105.796v47.02H1.102Zm0 0"/></clipPath></defs><g fill="#fff" clip-path="url(#a)"><path d="M1.102 0h105.796v47.02H1.102Zm0 0"/><path d="M1.102 0h105.796v47.02H1.102Zm0 0"/></g><path fill="#fa0050" fill-rule="evenodd" d="M75.738 24.664c0-.559-.187-1.117-.808-1.117a.8.8 0 0 0-.618.246c-.496.496-.808 1.18-.93 1.863l-.374 2.106c.125.125.312.187.433.25.125.062.25.062.375.062 1.114 0 1.922-1.984 1.922-3.41m2.977-.25c0 2.977-1.86 5.89-4.778 5.89-.308 0-.617-.058-.93-.12a3 3 0 0 1-.433-.188h-.062l-.434 2.418c-.187.809-.371.867-.992.93-.496.062-1.055-.063-1.55-.246-.31-.125-.497-.313-.372-.871l1.984-10.356c.063-.433.247-.621.559-.68h.742c.375.059.684.122.992.309.25.184.375.496.313.742l-.063.188c.246-.371.559-.684.993-.867.433-.25.93-.372 1.425-.372 1.86 0 2.606 1.489 2.606 3.223m-17.367-.992c.312-.246.5-.559.62-.93.126-.433.126-.683-.558-1.055q-1.112-.463-2.418-.37c-2.293.062-3.844 1.363-3.719 3.222.063 1.055.993 1.8 1.985 2.297.742.371.992.621 1.054.93 0 .308-.25.62-.808.62a5.7 5.7 0 0 1-1.797-.312c-.434-.183-.559-.062-.746.125-.246.309-.434.684-.434 1.055-.062.433.063.683.559.93a4.94 4.94 0 0 0 2.297.37c2.418-.058 4.027-1.238 3.906-3.222-.062-1.117-1.117-1.8-2.172-2.36-.62-.308-.93-.495-.93-.804 0-.434.372-.621.93-.68.496 0 .93.059 1.426.184l.125.062c.496.125.496.063.68-.062m31.132 4.59c-.062-.25-.37-.434-.617-.371-.187 0-.558.12-.683 0-.125-.125-.25-.25-.25-.434.062-.312.062-.621.125-.934l.558-2.789h1.242a.66.66 0 0 0 .56-.558c.12-.496.12-.742.183-.992 0-.188-.063-.372-.184-.434a.7.7 0 0 0-.5-.187h-.93s.313-1.426.313-1.489a.38.38 0 0 0-.063-.433.64.64 0 0 0-.37-.309c-.434-.187-.934-.312-1.43-.25-.555 0-.805.125-.993.93l-.308 1.55h-.496a.6.6 0 0 0-.559.434q-.093.373-.187.934c-.059.246-.121.68.558.742h.375l-.62 3.226a6 6 0 0 0-.188 1.489c.062 1.175.808 1.984 2.359 1.984.496 0 1.055-.125 1.488-.375.617-.308.68-.433.742-.93 0-.246 0-.558-.125-.804m4.407-6.574c-.434-.188-.934-.31-1.367-.31-.743 0-.93.184-.993.743l-1.054 7.258c-.059.183 0 .371.062.496.063.121.25.246.375.309.496.187.992.312 1.547.25.559-.063.809-.188.934-.934l.992-6.82c.058-.434-.125-.805-.496-.992m-77.77-2.356c.188-.312.246-.684 0-.992-.308-.496-.683-.93-1.18-1.18-.68-.37-1.175-.308-1.609.434q-.743 1.305-1.492 2.605l-1.426 2.418c-.12-.246-.617-2.605-.867-3.781a1.5 1.5 0 0 0-.434-.809c-.496-.496-1.117-.804-1.796-.804-.872 0-1.055.25-.997.992 0 .25.063.496.125.742.313 1.492.746 2.977 1.368 4.406.246.559.554 1.114.93 1.61.12.125.12.375.058.5-.434.992-.93 1.984-1.363 2.976-.371.93-.618 1.922-.559 2.914 0 .371.188.742.5.992.434.372 1.05.497 1.61.372.558-.063.992-.434 1.117-.93.683-3.102 1.921-6.14 3.66-8.805.804-1.367 1.55-2.484 2.355-3.66m77.149-1.363c-.371 0-.746.183-1.055.496q-.373.463-.371 1.113c0 .375.12.684.37.93.247.25.56.375.93.312.434 0 .805-.187 1.055-.496.246-.312.434-.746.371-1.117 0-.371-.183-.684-.433-.93-.125-.187-.496-.308-.867-.308M35.8 21.129c-1.117 0-2.11.555-2.73 1.488-.126-.933-.993-1.55-1.923-1.488-1.117 0-2.171.555-2.73 1.488 0 0 .062-.312.062-.375a.81.81 0 0 0-.308-.805c-.371-.187-.809-.308-1.242-.246-.434 0-.805.059-.93.68l-1.363 7.07c-.063.434-.063.622.183.805.375.25.871.438 1.305.5.559.059 1.117-.062 1.18-.437l.68-3.594c.312-1.676.992-2.606 1.613-2.606.37 0 .558.309.558.805 0 .371-.062.684-.125 1.055l-.68 3.597c-.124.309 0 .622.247.805.37.25.867.434 1.3.434.747.062 1.055-.121 1.18-.805l.621-3.285c.309-1.676.93-2.606 1.551-2.606.434 0 .617.309.617.743 0 .37-.058.746-.12 1.117l-.684 3.41c-.126.312 0 .621.187.808.434.247.867.434 1.363.434.621.063 1.055-.125 1.18-.808l.867-4.34c.063-.559.125-1.055.184-1.614 0-1.363-.617-2.23-2.043-2.23m46.57 3.594c1.613.062 2.297-.184 2.36-.805 0-.371-.25-.621-.684-.621-.867 0-1.613.621-1.676 1.426m3.973 4.406c0 .246 0 .433-.434.617-.933.313-1.984.5-2.98.438-2.48-.063-3.657-1.489-3.594-3.786.059-2.668 1.922-5.394 5.082-5.27 1.8.063 2.977 1.177 2.918 2.79-.063 2.297-2.047 3.102-5.336 2.914 0 .25.125.434.313.621.37.309.867.496 1.425.496a6 6 0 0 0 1.489-.187c.433-.121.558 0 .804.312.125.309.25.68.313 1.055m-66.485-4.406c1.614.062 2.297-.184 2.36-.805 0-.371-.25-.621-.684-.621-.867 0-1.613.621-1.676 1.426m3.973 4.406c0 .246 0 .433-.437.617-.93.313-1.985.5-2.977.438-2.48-.063-3.656-1.489-3.598-3.786.063-2.668 1.926-5.394 5.086-5.27 1.801.063 2.977 1.177 2.914 2.79-.058 2.297-2.043 3.102-5.332 2.914 0 .25.125.434.313.621.37.309.93.496 1.426.496a6 6 0 0 0 1.488-.187c.433-.121.558 0 .805.312.125.309.25.68.312 1.055m17.488-4.406c1.61.062 2.293-.184 2.356-.805 0-.371-.25-.621-.684-.621-.867 0-1.55.621-1.672 1.426m3.97 4.406c0 .246 0 .433-.435.617-.933.313-1.988.5-2.976.438-2.484-.063-3.66-1.489-3.66-3.786.062-2.668 1.922-5.394 5.086-5.27 1.797.063 2.976 1.177 2.914 2.79-.063 2.297-2.047 3.102-5.336 2.914 0 .25.125.434.312.621.371.309.867.496 1.426.496a6 6 0 0 0 1.488-.187c.434-.121.559 0 .805.312.25.309.375.68.375 1.055m19.718-4.406c1.613.062 2.297-.184 2.36-.805a.7.7 0 0 0-.188-.496.7.7 0 0 0-.496-.184c-.868.059-1.551.68-1.676 1.485m3.969 4.406c0 .246 0 .433-.434.617-.93.313-1.984.5-2.977.438-2.48-.063-3.66-1.489-3.597-3.786.062-2.668 1.922-5.394 5.086-5.27 1.8.063 2.976 1.177 2.914 2.79-.063 2.297-2.043 3.102-5.332 2.914 0 .25.125.434.308.621.375.309.934.496 1.426.496a6 6 0 0 0 1.492-.187c.434-.121.555 0 .805.312.125.309.246.68.309 1.055m-16.93-3.848s1.426 3.29 1.676 3.785c.183.434 0 .68-.496.868a4.3 4.3 0 0 1-1.801.187c-.246-.062-.496-.187-.559-.433l-.988-2.731-.559.496-.375 1.797c-.12.746-.433.809-.992.871-.496.063-.992-.062-1.488-.25-.371-.183-.559-.371-.371-.992l2.047-10.727c.125-.62.246-.93 1.18-.93.495 0 .992.122 1.425.372.246.183.371.558.309.867-.246 1.363-1.117 5.644-1.117 5.644l2.421-2.421q.556-.556.93-.555c.496 0 .992.183 1.426.433.496.372.558.868.187 1.18Zm0 0"/></svg>
